X: 130231
T: Miss Mahany's
C: M.Dugger
Z: B.Black
R: polka
M: 2/4
L: 1/8
K: D
A/ | dd B/c/d | AF DF | ec Ac | de fe |
dd B/c/d | AF DA | ec Ac | d2-d-d/ :|
e/ | f>e f/g/a | bg ed | c/B/A Bc | de fe |
f>e f/g/a | bg ed |1 cB/A/ Bc | d2-dd/ :|
|2 cB/A/ | Bc | d2 d2 ||
